melody-of-light/img/category/category-6.svg

<svg width="21" height="21" viewBox="0 0 21 21" fill="none" xmlns="http://www.w3.org/2000/svg">
<path d="M1.23633 6.25H19.8275V7.6426C19.8275 8.02715 19.5158 8.3389 19.1312 8.3389H1.93263C1.54807 8.3389 1.23633 8.02715 1.23633 7.6426V6.25Z" fill="#93939F"/>
<path d="M1.93262 9.10449H19.1312V9.80079C19.1312 10.1853 18.8195 10.4971 18.4349 10.4971H2.62891C2.24436 10.4971 1.93262 10.1853 1.93262 9.80079V9.10449Z" fill="#93939F"/>
<rect x="9.87012" y="12.0293" width="1" height="2.64594" rx="0.5" fill="#93939F"/>
<rect x="13.5859" y="12.2366" width="1" height="2.64594" rx="0.5" transform="rotate(-15 13.5859 12.2366)" fill="#93939F"/>
<rect x="6.19434" y="11.9121" width="1" height="2.64594" rx="0.5" transform="rotate(15 6.19434 11.9121)" fill="#93939F"/>
</svg>

<svg width="21" height="21" fill="none" xmlns="http://www.w3.org/2000/svg"><path d="M1.236 6.25h18.592v1.393a.696.696 0 01-.697.696H1.933a.696.696 0 01-.697-.696V6.25zm.697 2.854H19.13v.697a.696.696 0 01-.696.696H2.629a.696.696 0 01-.696-.696v-.697z" fill="#93939F"/><rect x="9.87" y="12.029" width="1" height="2.646" rx=".5" fill="#93939F"/><rect x="13.586" y="12.237" width="1" height="2.646" rx=".5" transform="rotate(-15 13.586 12.237)" fill="#93939F"/><rect x="6.194" y="11.912" width="1" height="2.646" rx=".5" transform="rotate(15 6.194 11.912)" fill="#93939F"/></svg>
